X: 21687
T: Kilrossanty
R: reel
M: 4/4
K: Gmixolydian
Bc|:"G" dGGG AGGG|BAGA A2 GF|"Dm" DFFF AFFF|BAFB A2 AF|
"G" GDFG AGGG|BAGA A2 GF|"Dm" DGFG AFDF|1 BAFA"G" GABc:|2 BAGF"G" DFGA||
"G" cAGA B2 BA|BcdB AGFD|"Dm" GDFA _BAGF|GDFA"C" GcBG|
"G" BGFG AGGG|BAGA A2 GF|"Dm" DGFG AFDF|1 BAGF"G" DFGA:|2 BAFA"G" G4||

